cssgg/close-o.svg

<svg
  width="24"
  height="24"
  viewBox="0 0 24 24"
  fill="none"
  xmlns="http://www.w3.org/2000/svg"
>
  <path
    d="M16.3394 9.32245C16.7434 8.94589 16.7657 8.31312 16.3891 7.90911C16.0126 7.50509 15.3798 7.48283 14.9758 7.85938L12.0497 10.5866L9.32245 7.66048C8.94589 7.25647 8.31312 7.23421 7.90911 7.61076C7.50509 7.98731 7.48283 8.62008 7.85938 9.0241L10.5866 11.9502L7.66048 14.6775C7.25647 15.054 7.23421 15.6868 7.61076 16.0908C7.98731 16.4948 8.62008 16.5171 9.0241 16.1405L11.9502 13.4133L14.6775 16.3394C15.054 16.7434 15.6868 16.7657 16.0908 16.3891C16.4948 16.0126 16.5171 15.3798 16.1405 14.9758L13.4133 12.0497L16.3394 9.32245Z"
    fill="currentColor"
  />
  <path
    fill-rule="evenodd"
    clip-rule="evenodd"
    d="M1 12C1 5.92487 5.92487 1 12 1C18.0751 1 23 5.92487 23 12C23 18.0751 18.0751 23 12 23C5.92487 23 1 18.0751 1 12ZM12 21C7.02944 21 3 16.9706 3 12C3 7.02944 7.02944 3 12 3C16.9706 3 21 7.02944 21 12C21 16.9706 16.9706 21 12 21Z"
    fill="currentColor"
  />
</svg>

<svg viewBox="0 0 24 24" xmlns="http://www.w3.org/2000/svg"><g><path d="M16.33 9.32c.4-.38.42-1.01.04-1.42 -.38-.41-1.01-.43-1.42-.05l-2.93 2.72 -2.73-2.93c-.38-.41-1.01-.43-1.42-.05 -.41.37-.43 1-.05 1.41l2.72 2.92 -2.93 2.72c-.41.37-.43 1-.05 1.41 .37.4 1 .42 1.41.04l2.92-2.73 2.72 2.92c.37.4 1 .42 1.41.04 .4-.38.42-1.01.04-1.42l-2.73-2.93 2.92-2.73Z"/><path fill-rule="evenodd" d="M1 12C1 5.92 5.92 1 12 1c6.07 0 11 4.92 11 11 0 6.07-4.93 11-11 11C5.92 23 1 18.07 1 12Zm11 9c-4.98 0-9-4.03-9-9 0-4.98 4.02-9 9-9 4.97 0 9 4.02 9 9 0 4.97-4.03 9-9 9Z"/></g></svg>
